X:1
T:Rondo in F
T:Rondo in F
T:K. 15hh
T:W.A. Mozart
C:W.A. Mozart
%%score { 1 | 2 }
L:1/8
Q:1/4=82
M:3/8
K:F
V:1 treble nm="Piano" snm="Pno."
V:2 bass 
V:1
"^Poco allegro" fff | fff | fa/f/e/d/ | cBA | CDE | FGA | B2 A/B/ |{A} G3 | fff | fff | fa/f/e/d/ | %11
 cBA | z z B | AGF | G/B/A/G/F/E/ | F3!fine! |] de^f | gab | z z c | BAG | cde | fga | z z B | %23
 AGF | AaA | Gg z | GgG | Ff A | (3B/A/G/FTE | D2 z | fff | fff | fa/f/e/d/ | cBA | CDE | FGA | %36
 B2 A/B/ |{A} G2 z | fff | fff | fa/f/e/d/ | cBA | z z C | DEF | G/B/A/G/F/E/ | F2 z || %46
[K:Ab] c_dc | =Ba z | _BcB | =A_g z | B2 =B | c2 =d | =ef_a | g/f/=e/=d/c | c=dc | =B_a z | _BcB | %57
 =A_g z | B2 =B | c2 =d | =e/f/_d/B/G/=E/ | F3!D.C.! || %62
V:2
 F,[I:staff -1]FE | D[I:staff +1]CB, | A,2 F, | G,C,F, | z z B, | A,G,F, | E,2 F, | CC, z | %8
 F,[I:staff -1]FE | D[I:staff +1]CB, | A,2 F, | G,C,F, | C,D,E, | F,G,A, | B,CC, | F,C,F,, |] %16
 z z C | B,A,G, | D,E,^F, | G,A,B, | z z B, | A,G,F, | C,D,E, | F,G,A, | F,D,/E,/F,/D,/ | %25
 E,/F,/E,/D,/^C,/=B,,/ | A,,/=B,,/^C,/B,,/C,/A,,/ | D,/^C,/D,/E,/F,/D,/ | G,A,A,, | %29
 D,/D/C/B,/A,/G,/ | F,[I:staff -1]FE | D[I:staff +1]CB, | A,2 F, | G,C,F, | z z C, | D,E,F, | %36
 G,E,F, | C,C,, z | F,[I:staff -1]FE | D[I:staff +1]CB, | A,2 F, | G,C,F, | C,D,E, | F,G,A, | %44
 B,CC, | F,C,F,, ||[K:Ab] [F,A,]3 | z/ F,/G,/=A,/=D | [=E,G,]3 | z/ _E,/_G,/=A,/C | =D,2 _D, | %51
 C,2 =B,, | _B,,/B,/_A,F, | C,3 | [F,A,]3 | z/ F,/A,/=B,/=D | [=E,G,]3 | z/ _E,/_G,/=A,/C | %58
 =D,2 _D, | C,C=B, | C/A,/_B,C | F,C,F,, || %62

